X: 1
T: the Byron Strathspey
C: Andrew Rankine
R: strathspey
B: Deeside 2
Z: 1997 by John Chambers <jc:trillian.mit.edu>
M: C
L: 1/8
K: A
E>A \
| "A"c2 c2 "E7"B>c dG | "D"F>^E F>G "B7"A>B A<F | "E7"E4- E2E>A |
| "A"c2 c2 "E7"B>c dg a<f | "A"e>f e>c "E7"B>c d>B | "A"A4- A2 ||
a>g \
| "D"f>^e f>g a>g a>f | "A"e4- e2 c2 | "Bm"B^A B>c "E7"d>c d<e | "A"c4- c2 c>B |
| "D"A>G A>G "B7"A>B A<F | "E7"E>^D E>A "A"c>e d>c | "Bm"B>^A B>c "E7"d>B G<B | "A"A4- A2 |]
